svgs/prepladder.svg

<svg xmlns="http://www.w3.org/2000/svg" viewBox="0 0 192 192"><path d="M27.047 174.277c-1.355-1.355-1.653-2.022-1.653-3.694 0-1.123.373-2.673.83-3.445 1.695-2.871 1.779-2.88 26.405-2.88 19.788 0 22.668.095 24.144.795 2.037.967 3.092 2.861 3.092 5.552 0 1.647-.305 2.323-1.654 3.672l-1.653 1.653H28.701Zm-.041-20.687c-1.736-1.066-2.437-2.128-2.589-3.922-.225-2.65.07-3.567 1.658-5.156l1.653-1.653h23.418c25.805 0 25.489-.035 27.062 3.005 1.148 2.221.646 5.039-1.234 6.92l-1.504 1.504-23.458.128c-22.56.122-23.516.091-25.006-.826Zm-.931-22.598c-1.405-1.405-1.654-1.993-1.654-3.908 0-1.305.349-2.787.829-3.519 1.665-2.541 2.182-2.592 26.562-2.592h22.559l1.646 1.109c2.797 1.886 3.617 4.8 2.148 7.64-1.566 3.03-.599 2.924-26.665 2.924H27.728Zm.931-20.686c-1.736-1.067-2.437-2.129-2.589-3.923-.225-2.65.07-3.567 1.658-5.155l1.653-1.654h23.418c25.805 0 25.489-.035 27.062 3.006 1.148 2.221.646 5.038-1.234 6.919l-1.504 1.504-23.458.128c-22.56.122-23.516.091-25.006-.825Zm63.348-.006c-2.646-1.744-3.458-4.946-1.981-7.803 1.567-3.029.6-2.923 26.665-2.923h23.772l1.653 1.653c1.35 1.35 1.654 2.025 1.654 3.672 0 1.11-.332 2.66-.738 3.445-1.509 2.919-1.358 2.902-26.595 2.899-21.92-.003-23.071-.048-24.43-.943ZM28.613 89.344c-5.287-1.583-5.918-8.915-.947-10.992 1.263-.528 6.197-.664 24.146-.664h22.559l1.646 1.109c3.02 2.036 3.718 5.275 1.764 8.182-.635.944-1.834 1.901-2.797 2.233-2.004.69-44.106.81-46.371.132Zm88.964.148c-2.633-.668-4.641-3.209-4.641-5.871 0-1.716 1.781-4.481 3.419-5.31.91-.461 6.749-.609 24.06-.614 22.076-.005 22.913.029 24.468.977 1.967 1.199 3.19 3.873 2.744 5.995-.429 2.037-2.438 4.1-4.569 4.692-1.743.484-43.617.605-45.481.131Zm-1.765-21.667c-3.021-2.035-3.719-5.275-1.764-8.181 1.932-2.87 2.429-2.92 27.312-2.765 25.282.158 24.293.006 25.802 3.959 1.043 2.729.227 5.393-2.137 6.984l-1.653 1.112h-45.915Zm-88.806-.804c-1.736-1.067-2.437-2.129-2.589-3.923-.225-2.65.07-3.567 1.658-5.155l1.653-1.654h23.418c25.805 0 25.489-.035 27.062 3.006 1.148 2.221.646 5.039-1.234 6.919l-1.504 1.504-23.458.128c-22.56.122-23.516.091-25.006-.825Zm0-18.968c-1.736-1.066-2.437-2.129-2.589-3.922-.225-2.65.07-3.567 1.658-5.156l1.653-1.653h23.418c25.805 0 25.489-.035 27.062 3.005 1.148 2.221.646 5.039-1.234 6.919l-1.504 1.505-23.458.127c-22.56.123-23.516.091-25.006-.825Zm89.578.477c-2.956-1.223-4.444-5.34-2.963-8.203 1.672-3.234 1.424-3.204 26.878-3.227 22.429-.021 22.972.001 24.317.983.756.552 1.778 1.814 2.27 2.804.798 1.605.824 2.021.243 3.845-.435 1.364-1.201 2.413-2.304 3.153l-1.653 1.109-22.907-.031c-12.6-.017-23.346-.212-23.881-.433ZM27.006 27.14c-1.736-1.066-2.437-2.128-2.589-3.922-.225-2.65.07-3.567 1.658-5.156l1.653-1.653h47.657l1.482 1.385c2.632 2.458 2.649 6.123.042 8.621l-1.485 1.423-23.434.127c-22.538.123-23.494.091-24.984-.825Zm63.777.187c-3.333-1.645-4.212-6.294-1.719-9.087l1.417-1.588 6.972-.256c14.352-.526 38.277-.529 40.227-.003 5.134 1.382 6.072 8.192 1.5 10.893-1.196.706-3.9.794-24.13.784-19.295-.009-23.011-.123-24.267-.743Z"/></svg>

<svg
    xmlns="http://www.w3.org/2000/svg"
    viewBox="0 0 192 192"
    id="vector">
    <path
        id="path"
        d="M 27.047 174.277 C 25.692 172.922 25.394 172.255 25.394 170.583 C 25.394 169.46 25.767 167.91 26.224 167.138 C 27.919 164.267 28.003 164.258 52.629 164.258 C 72.417 164.258 75.297 164.353 76.773 165.053 C 78.81 166.02 79.865 167.914 79.865 170.605 C 79.865 172.252 79.56 172.928 78.211 174.277 L 76.558 175.93 L 28.701 175.93 Z M 27.006 153.59 C 25.27 152.524 24.569 151.462 24.417 149.668 C 24.192 147.018 24.487 146.101 26.075 144.512 L 27.728 142.859 L 51.146 142.859 C 76.951 142.859 76.635 142.824 78.208 145.864 C 79.356 148.085 78.854 150.903 76.974 152.784 L 75.47 154.288 L 52.012 154.416 C 29.452 154.538 28.496 154.507 27.006 153.59 Z M 26.075 130.992 C 24.67 129.587 24.421 128.999 24.421 127.084 C 24.421 125.779 24.77 124.297 25.25 123.565 C 26.915 121.024 27.432 120.973 51.812 120.973 L 74.371 120.973 L 76.017 122.082 C 78.814 123.968 79.634 126.882 78.165 129.722 C 76.599 132.752 77.566 132.646 51.5 132.646 L 27.728 132.646 Z M 27.006 110.306 C 25.27 109.239 24.569 108.177 24.417 106.383 C 24.192 103.733 24.487 102.816 26.075 101.228 L 27.728 99.574 L 51.146 99.574 C 76.951 99.574 76.635 99.539 78.208 102.58 C 79.356 104.801 78.854 107.618 76.974 109.499 L 75.47 111.003 L 52.012 111.131 C 29.452 111.253 28.496 111.222 27.006 110.306 Z M 90.354 110.3 C 87.708 108.556 86.896 105.354 88.373 102.497 C 89.94 99.468 88.973 99.574 115.038 99.574 L 138.81 99.574 L 140.463 101.227 C 141.813 102.577 142.117 103.252 142.117 104.899 C 142.117 106.009 141.785 107.559 141.379 108.344 C 139.87 111.263 140.021 111.246 114.784 111.243 C 92.864 111.24 91.713 111.195 90.354 110.3 Z M 28.613 89.344 C 23.326 87.761 22.695 80.429 27.666 78.352 C 28.929 77.824 33.863 77.688 51.812 77.688 L 74.371 77.688 L 76.017 78.797 C 79.037 80.833 79.735 84.072 77.781 86.979 C 77.146 87.923 75.947 88.88 74.984 89.212 C 72.98 89.902 30.878 90.022 28.613 89.344 Z M 117.577 89.492 C 114.944 88.824 112.936 86.283 112.936 83.621 C 112.936 81.905 114.717 79.14 116.355 78.311 C 117.265 77.85 123.104 77.702 140.415 77.697 C 162.491 77.692 163.328 77.726 164.883 78.674 C 166.85 79.873 168.073 82.547 167.627 84.669 C 167.198 86.706 165.189 88.769 163.058 89.361 C 161.315 89.845 119.441 89.966 117.577 89.492 Z M 115.812 67.825 C 112.791 65.79 112.093 62.55 114.048 59.644 C 115.98 56.774 116.477 56.724 141.36 56.879 C 166.642 57.037 165.653 56.885 167.162 60.838 C 168.205 63.567 167.389 66.231 165.025 67.822 L 163.372 68.934 L 117.457 68.934 Z M 27.006 67.021 C 25.27 65.954 24.569 64.892 24.417 63.098 C 24.192 60.448 24.487 59.531 26.075 57.943 L 27.728 56.289 L 51.146 56.289 C 76.951 56.289 76.635 56.254 78.208 59.295 C 79.356 61.516 78.854 64.334 76.974 66.214 L 75.47 67.718 L 52.012 67.846 C 29.452 67.968 28.496 67.937 27.006 67.021 Z M 27.006 48.053 C 25.27 46.987 24.569 45.924 24.417 44.131 C 24.192 41.481 24.487 40.564 26.075 38.975 L 27.728 37.322 L 51.146 37.322 C 76.951 37.322 76.635 37.287 78.208 40.327 C 79.356 42.548 78.854 45.366 76.974 47.246 L 75.47 48.751 L 52.012 48.878 C 29.452 49.001 28.496 48.969 27.006 48.053 Z M 116.584 48.53 C 113.628 47.307 112.14 43.19 113.621 40.327 C 115.293 37.093 115.045 37.123 140.499 37.1 C 162.928 37.079 163.471 37.101 164.816 38.083 C 165.572 38.635 166.594 39.897 167.086 40.887 C 167.884 42.492 167.91 42.908 167.329 44.732 C 166.894 46.096 166.128 47.145 165.025 47.885 L 163.372 48.994 L 140.465 48.963 C 127.865 48.946 117.119 48.751 116.584 48.53 Z M 27.006 27.14 C 25.27 26.074 24.569 25.012 24.417 23.218 C 24.192 20.568 24.487 19.651 26.075 18.062 L 27.728 16.409 L 75.385 16.409 L 76.867 17.794 C 79.499 20.252 79.516 23.917 76.909 26.415 L 75.424 27.838 L 51.99 27.965 C 29.452 28.088 28.496 28.056 27.006 27.14 Z M 90.783 27.327 C 87.45 25.682 86.571 21.033 89.064 18.24 L 90.481 16.652 L 97.453 16.396 C 111.805 15.87 135.73 15.867 137.68 16.393 C 142.814 17.775 143.752 24.585 139.18 27.286 C 137.984 27.992 135.28 28.08 115.05 28.07 C 95.755 28.061 92.039 27.947 90.783 27.327 Z"
        fill="#000000"
        stroke-width="12"/>
</svg>
